digitransit-component/packages/digitransit-component-icon/src/assets/amporto/star.svg

<svg xmlns="http://www.w3.org/2000/svg" viewBox="0 0 50 50" fill="none">
  <path fill-rule="evenodd" clip-rule="evenodd"
    d="M29.729 5.95433C31.2445 5.32429 32.8688 5 34.5091 5C36.1495 5 37.7738 5.32429 39.2892 5.95433C40.8043 6.58427 42.181 7.50751 43.3405 8.67132C44.5003 9.83476 45.4211 11.2167 46.0489 12.737C46.6768 14.2576 47 15.8874 47 17.5333C47 19.1792 46.6768 20.809 46.0489 22.3296C45.421 23.85 44.5008 25.2314 43.3408 26.3949L26.3579 43.4354C25.6077 44.1882 24.3913 44.1882 23.641 43.4354L6.6582 26.3949C4.31589 24.0447 3 20.857 3 17.5333C3 14.2095 4.31589 11.0219 6.6582 8.67164C9.0005 6.32139 12.1773 5.00103 15.4899 5.00103C18.8024 5.00103 21.9792 6.32139 24.3215 8.67164L24.9995 9.3519L25.6771 8.67196C26.8367 7.508 28.2138 6.58432 29.729 5.95433ZM34.5091 8.85531C33.3735 8.85531 32.249 9.07982 31.1998 9.51601C30.1507 9.95219 29.1975 10.5915 28.3947 11.3974L26.3579 13.4411C25.6077 14.1939 24.3913 14.1939 23.641 13.4411L21.6046 11.3978C19.9829 9.77052 17.7833 8.85634 15.4899 8.85634C13.1964 8.85634 10.9968 9.77052 9.37509 11.3978C7.75335 13.025 6.84227 15.232 6.84227 17.5333C6.84227 19.8346 7.75336 22.0416 9.37509 23.6688L24.9995 39.3462L40.6239 23.6688C41.4271 22.8633 42.0646 21.9065 42.4993 20.8538C42.934 19.8011 43.1577 18.6728 43.1577 17.5333C43.1577 16.3938 42.934 15.2655 42.4993 14.2128C42.0646 13.1601 41.4274 12.2036 40.6242 11.3981C39.8214 10.5922 38.8675 9.95219 37.8184 9.51601C36.7692 9.07982 35.6447 8.85531 34.5091 8.85531Z"
    fill="#00095F" />
  <path
    d="M44 23L25 41.5L21 38.5L15 32L8.5 25L6 18L7 11.5L12 7.5L19.5 8L25 11.5L29 7.5H37.5L42.5 9.5L44 16.5V23Z"
    fill="#00095F" />
</svg>

<svg xmlns="http://www.w3.org/2000/svg" viewBox="0 0 50 50" fill="none"><path fill-rule="evenodd" clip-rule="evenodd" d="M29.729 5.954A12.452 12.452 0 0 1 43.34 8.671 12.538 12.538 0 0 1 47 17.533a12.567 12.567 0 0 1-3.66 8.862l-16.982 17.04a1.917 1.917 0 0 1-2.717 0L6.658 26.395A12.554 12.554 0 0 1 3 17.533c0-3.324 1.316-6.511 3.658-8.861A12.468 12.468 0 0 1 15.49 5c3.312 0 6.49 1.32 8.832 3.67l.678.68.677-.679a12.488 12.488 0 0 1 4.052-2.718Zm4.78 2.901a8.62 8.62 0 0 0-6.114 2.542l-2.037 2.044a1.917 1.917 0 0 1-2.717 0l-2.036-2.043a8.633 8.633 0 0 0-6.115-2.542 8.633 8.633 0 0 0-6.115 2.542 8.692 8.692 0 0 0-2.533 6.135c0 2.302.911 4.509 2.533 6.136L25 39.346 40.623 23.67a8.678 8.678 0 0 0 2.534-6.136 8.7 8.7 0 0 0-2.534-6.135 8.62 8.62 0 0 0-6.115-2.543Z" fill="#0c534a"></path><path d="M44 23 25 41.5l-4-3-6-6.5-6.5-7L6 18l1-6.5 5-4 7.5.5 5.5 3.5 4-4h8.5l5 2 1.5 7V23Z" fill="#0c534a"></path></svg>
